assets/Woman elf/Light/Flat/woman_elf_flat_light.svg

<svg width="32" height="32" viewBox="0 0 32 32" fill="none" xmlns="http://www.w3.org/2000/svg">
<path d="M23.79 12.18C24 11.74 24.12 11.24 24.12 10.72C24.12 10.03 23.91 9.39 23.56 8.86C23.2 8.32 23.02 7.69 23.02 7.05V7.04C23.02 5.18 21.51 3.67 19.65 3.67C19.47 3.67 19.29 3.58 19.18 3.43C18.56 2.56 17.56 2 16.43 2C15.3 2 14.29 2.56 13.68 3.41C13.58 3.56 13.4 3.65 13.22 3.65C11.36 3.65 9.84999 5.16 9.84999 7.02V7.03C9.84999 7.68 9.66999 8.31 9.30999 8.84C8.93999 9.38 8.73999 10.02 8.73999 10.71C8.73999 11.23 8.85999 11.73 9.06999 12.17C9.13999 12.32 9.13999 12.49 9.06999 12.64C8.85999 13.08 8.73999 13.56 8.73999 14.08C8.73999 15.9 10.22 17.38 12.04 17.38H20.83C22.65 17.38 24.13 15.9 24.13 14.08C24.13 13.56 24.01 13.07 23.8 12.64C23.72 12.5 23.71 12.32 23.79 12.18Z" fill="#212121"/>
<path d="M12.4501 9.67992C13.0201 10.2499 13.0201 11.1799 12.4501 11.7499C11.8801 12.3299 10.9501 12.3299 10.3801 11.7499C9.81012 11.1799 7.82012 8.25992 8.39012 7.68992C8.96012 7.11992 11.8801 9.10992 12.4501 9.67992Z" fill="#F4C6AD"/>
<path d="M20.4302 9.67992C19.8602 10.2499 19.8602 11.1799 20.4302 11.7499C21.0002 12.3299 21.9302 12.3299 22.5002 11.7499C23.0702 11.1799 25.0602 8.25992 24.4902 7.68992C23.9202 7.11992 21.0002 9.10992 20.4302 9.67992Z" fill="#F4C6AD"/>
<path d="M26.8503 29.9796L18.1638 24.6699L13.9802 16.2801C14.7764 16.0799 15.6006 15.97 16.4501 15.97C19.0701 15.97 21.5101 16.98 23.3401 18.68L23.3401 18.6699C24.6101 19.8499 25.5901 21.3599 26.1301 23.0899C26.6301 24.6899 26.8801 26.3699 26.8701 28.0499L26.8503 29.9796Z" fill="#8B62BF"/>
<path d="M16.55 29.9999L6 30V28.02C6 26.36 6.26 24.71 6.76 23.13L6.79 23.05C7.04659 22.2269 7.40793 21.4587 7.8502 20.7501L13.799 24.2758L16.55 29.9999Z" fill="#8B62BF"/>
<path d="M13.9801 16.28L26.8601 29.99V30L16.5501 30L7.8501 20.75C8.3201 19.99 8.8901 19.31 9.5301 18.71C10.7801 17.54 12.3001 16.7 13.9801 16.28Z" fill="#7D4533"/>
<path d="M16.4401 21.2599C20.0686 21.2599 23.0101 19.4467 23.0101 17.2099C23.0101 14.9732 20.0686 13.1599 16.4401 13.1599C12.8116 13.1599 9.87012 14.9732 9.87012 17.2099C9.87012 19.4467 12.8116 21.2599 16.4401 21.2599Z" fill="#A56953"/>
<path d="M16.8355 20.1925C16.6331 20.442 16.2513 20.4386 16.0533 20.1855L15.4506 19.4149C14.7245 18.4865 14.1392 17.4562 13.7134 16.3572L13.3 15.29H19.57L19.2916 16.0736C18.8351 17.3583 18.163 18.5558 17.3042 19.6146L16.8355 20.1925Z" fill="#F4C6AD"/>
<path d="M16.4399 25.17C15.3599 24.09 15.3599 22.34 16.4399 21.26C17.5199 22.34 17.5199 24.09 16.4399 25.17Z" fill="#FFF9BA"/>
<path d="M20.43 7.48999H17.17C15.88 7.48999 14.67 6.84999 13.95 5.78999C13.83 5.61999 13.56 5.64999 13.48 5.84999L13.4 6.03999C13.17 6.60999 12.73 7.04999 12.19 7.28999C12.16 7.30999 12.12 7.32 12.09 7.34C11.85 7.46 11.29 7.83 11.27 8.8L11.4 12.04C11.52 14.91 13.73 16.84 16.42 16.84C19.11 16.84 21.32 14.92 21.44 12.04L21.57 8.96C21.57 7.59 20.62 7.49999 20.43 7.48999Z" fill="#FFD7C2"/>
<path d="M13.75 9.37988C14.32 9.37988 14.8 9.77988 15.09 10.2299C14.868 10.2965 14.65 10.3591 14.4337 10.4211C13.9683 10.5548 13.5111 10.686 13.04 10.8499L12.55 10.4099C12.35 10.2199 12.36 9.89988 12.59 9.73988C12.91 9.50988 13.34 9.37988 13.75 9.37988Z" fill="black"/>
<path d="M19.1 9.37988C18.53 9.37988 18.05 9.77988 17.76 10.2299C17.973 10.2938 18.1813 10.354 18.3875 10.4135C18.8592 10.5498 19.3199 10.6829 19.8 10.8499L20.29 10.4099C20.5 10.2199 20.48 9.89988 20.26 9.73988C19.94 9.50988 19.51 9.37988 19.1 9.37988Z" fill="black"/>
<path d="M12.5401 10.56C12.7001 9.93998 13.2601 9.47998 13.9301 9.47998C14.6201 9.47998 15.2001 9.97998 15.3301 10.63C15.3601 10.78 15.2501 10.91 15.1001 10.91H12.8201C12.6401 10.91 12.5001 10.74 12.5401 10.56Z" fill="white"/>
<path d="M20.3101 10.56C20.1501 9.93998 19.5901 9.47998 18.9201 9.47998C18.2301 9.47998 17.6501 9.97998 17.5301 10.63C17.5001 10.78 17.6101 10.91 17.7601 10.91H20.0401C20.2201 10.91 20.3501 10.74 20.3101 10.56Z" fill="white"/>
<path d="M13.23 10.67C13.23 10.17 13.64 9.76001 14.14 9.76001C14.64 9.76001 15.05 10.17 15.05 10.67C15.05 10.75 15.04 10.83 15.02 10.91H13.26C13.24 10.83 13.23 10.75 13.23 10.67Z" fill="#7D4533"/>
<path d="M19.62 10.67C19.62 10.17 19.21 9.76001 18.71 9.76001C18.21 9.76001 17.8 10.17 17.8 10.67C17.8 10.75 17.81 10.83 17.83 10.91H19.59C19.61 10.83 19.62 10.75 19.62 10.67Z" fill="#7D4533"/>
<path d="M14.1399 10.1499C14.4299 10.1499 14.6599 10.3799 14.6599 10.6699C14.6599 10.7499 14.6399 10.8399 14.5999 10.9099H13.6799C13.6399 10.8399 13.6199 10.7599 13.6199 10.6699C13.6199 10.3799 13.8499 10.1499 14.1399 10.1499Z" fill="black"/>
<path d="M18.7099 10.1499C18.4199 10.1499 18.1899 10.3799 18.1899 10.6699C18.1899 10.7499 18.2099 10.8399 18.2499 10.9099H19.1699C19.2099 10.8399 19.2299 10.7599 19.2299 10.6699C19.2299 10.3799 18.9999 10.1499 18.7099 10.1499Z" fill="black"/>
<path d="M13.9899 10.3099C13.9899 10.3983 13.9183 10.4699 13.8299 10.4699C13.7416 10.4699 13.6699 10.3983 13.6699 10.3099C13.6699 10.2215 13.7416 10.1499 13.8299 10.1499C13.9183 10.1499 13.9899 10.2215 13.9899 10.3099Z" fill="white"/>
<path d="M18.56 10.3099C18.56 10.3983 18.4884 10.4699 18.4 10.4699C18.3116 10.4699 18.24 10.3983 18.24 10.3099C18.24 10.2215 18.3116 10.1499 18.4 10.1499C18.4884 10.1499 18.56 10.2215 18.56 10.3099Z" fill="white"/>
<path d="M16.42 13.7498C15.89 13.7498 15.39 13.6198 14.97 13.3998C14.83 13.3198 14.67 13.4898 14.76 13.6198C15.11 14.1598 15.72 14.5198 16.42 14.5198C17.12 14.5198 17.73 14.1598 18.08 13.6198C18.17 13.4798 18.02 13.3198 17.87 13.3998C17.45 13.6198 16.96 13.7498 16.42 13.7498Z" fill="#990838"/>
<path d="M16.0499 10.4399L15.5299 12.1199C15.4199 12.4599 15.6799 12.8099 16.0399 12.8099H16.8099C17.1699 12.8099 17.4299 12.4599 17.3199 12.1199L16.7999 10.4399C16.6899 10.0699 16.1599 10.0699 16.0499 10.4399Z" fill="#E5AF93"/>
<path d="M19.9 8.8198C19.95 8.8498 19.99 8.8598 20.04 8.8598C20.14 8.8598 20.23 8.8098 20.27 8.7098C20.35 8.5798 20.3 8.4198 20.17 8.3398C20.14 8.3198 19.25 7.8198 18.23 8.0098C18.08 8.0398 17.98 8.1798 18.01 8.3298C18.04 8.4798 18.18 8.5798 18.33 8.5498C19.0792 8.41274 19.7617 8.75158 19.8815 8.81106C19.8928 8.81667 19.9 8.8198 19.9 8.8198Z" fill="#212121"/>
<path d="M12.57 8.71986C12.62 8.80986 12.71 8.85986 12.81 8.85986C12.85 8.85986 12.9 8.84986 12.94 8.81986C12.94 8.81986 12.9472 8.81674 12.9585 8.81112C13.0783 8.75165 13.7608 8.4128 14.51 8.54986C14.66 8.57986 14.81 8.47986 14.83 8.32986C14.86 8.17986 14.76 8.03986 14.61 8.00986C13.59 7.81986 12.7 8.32986 12.67 8.34986C12.54 8.41986 12.49 8.58986 12.57 8.71986Z" fill="#212121"/>
<path d="M9.44922 7.18002C9.44922 6.91448 9.66448 6.69922 9.93002 6.69922H23.03C23.2956 6.69922 23.5108 6.91448 23.5108 7.18002C23.5108 7.44556 23.2956 7.66082 23.03 7.66082H9.93002C9.66448 7.66082 9.44922 7.44556 9.44922 7.18002Z" fill="#9B9B9B"/>
<path d="M16.4399 8.72997C15.4699 7.75997 15.4699 6.18997 16.4399 5.21997C17.4099 6.18997 17.4099 7.75997 16.4399 8.72997Z" fill="#B4F6FC"/>
</svg>

<svg xmlns="http://www.w3.org/2000/svg" width="32" height="32" fill="none"><path fill="#212121" d="M23.79 12.18c.21-.44.33-.94.33-1.46 0-.69-.21-1.33-.56-1.86-.36-.54-.54-1.17-.54-1.81v-.01c0-1.86-1.51-3.37-3.37-3.37-.18 0-.36-.09-.47-.24A3.368 3.368 0 0 0 16.43 2c-1.13 0-2.14.56-2.75 1.41a.56.56 0 0 1-.46.24c-1.86 0-3.37 1.51-3.37 3.37v.01c0 .65-.18 1.28-.54 1.81-.37.54-.57 1.18-.57 1.87 0 .52.12 1.02.33 1.46.07.15.07.32 0 .47a3.303 3.303 0 0 0 2.97 4.74h8.79a3.303 3.303 0 0 0 2.97-4.74.471.471 0 0 1-.01-.46Z"/><path fill="#F4C6AD" d="M12.45 9.68c.57.57.57 1.5 0 2.07-.57.58-1.5.58-2.07 0-.57-.57-2.56-3.49-1.99-4.06.57-.57 3.49 1.42 4.06 1.99ZM20.43 9.68c-.57.57-.57 1.5 0 2.07.57.58 1.5.58 2.07 0 .57-.57 2.56-3.49 1.99-4.06-.57-.57-3.49 1.42-4.06 1.99Z"/><path fill="#8B62BF" d="m26.85 29.98-8.686-5.31-4.184-8.39a10.1 10.1 0 0 1 2.47-.31c2.62 0 5.06 1.01 6.89 2.71v-.01c1.27 1.18 2.25 2.69 2.79 4.42.5 1.6.75 3.28.74 4.96l-.02 1.93ZM16.55 30H6v-1.98c0-1.66.26-3.31.76-4.89l.03-.08a9.912 9.912 0 0 1 1.06-2.3l5.949 3.526L16.55 30Z"/><path fill="#7D4533" d="m13.98 16.28 12.88 13.71V30H16.55l-8.7-9.25c.47-.76 1.04-1.44 1.68-2.04 1.25-1.17 2.77-2.01 4.45-2.43Z"/><path fill="#A56953" d="M16.44 21.26c3.629 0 6.57-1.813 6.57-4.05s-2.941-4.05-6.57-4.05c-3.628 0-6.57 1.813-6.57 4.05s2.942 4.05 6.57 4.05Z"/><path fill="#F4C6AD" d="M16.835 20.192a.5.5 0 0 1-.782-.006l-.602-.771a12 12 0 0 1-1.738-3.058L13.3 15.29h6.27l-.278.784a11.999 11.999 0 0 1-1.988 3.54l-.468.578Z"/><path fill="#FFF9BA" d="M16.44 25.17a2.764 2.764 0 0 1 0-3.91 2.764 2.764 0 0 1 0 3.91Z"/><path fill="#FFD7C2" d="M20.43 7.49h-3.26c-1.29 0-2.5-.64-3.22-1.7a.27.27 0 0 0-.47.06l-.08.19c-.23.57-.67 1.01-1.21 1.25-.03.02-.07.03-.1.05-.24.12-.8.49-.82 1.46l.13 3.24c.12 2.87 2.33 4.8 5.02 4.8 2.69 0 4.9-1.92 5.02-4.8l.13-3.08c0-1.37-.95-1.46-1.14-1.47Z"/><path fill="#000" d="M13.75 9.38c.57 0 1.05.4 1.34.85-.222.066-.44.13-.656.191-.466.134-.923.265-1.394.429l-.49-.44a.43.43 0 0 1 .04-.67c.32-.23.75-.36 1.16-.36ZM19.1 9.38c-.57 0-1.05.4-1.34.85.213.064.421.124.627.184.472.136.933.269 1.413.436l.49-.44c.21-.19.19-.51-.03-.67-.32-.23-.75-.36-1.16-.36Z"/><path fill="#fff" d="M12.54 10.56c.16-.62.72-1.08 1.39-1.08.69 0 1.27.5 1.4 1.15a.23.23 0 0 1-.23.28h-2.28c-.18 0-.32-.17-.28-.35ZM20.31 10.56c-.16-.62-.72-1.08-1.39-1.08-.69 0-1.27.5-1.39 1.15-.03.15.08.28.23.28h2.28c.18 0 .31-.17.27-.35Z"/><path fill="#7D4533" d="M13.23 10.67c0-.5.41-.91.91-.91a.913.913 0 0 1 .88 1.15h-1.76a.986.986 0 0 1-.03-.24ZM19.62 10.67c0-.5-.41-.91-.91-.91a.913.913 0 0 0-.88 1.15h1.76c.02-.08.03-.16.03-.24Z"/><path fill="#000" d="M14.14 10.15a.516.516 0 0 1 .46.76h-.92a.516.516 0 0 1 .46-.76ZM18.71 10.15a.516.516 0 0 0-.46.76h.92a.516.516 0 0 0-.46-.76Z"/><path fill="#fff" d="M13.99 10.31a.16.16 0 1 1-.32 0 .16.16 0 0 1 .32 0ZM18.56 10.31a.16.16 0 1 1-.32 0 .16.16 0 0 1 .32 0Z"/><path fill="#990838" d="M16.42 13.75c-.53 0-1.03-.13-1.45-.35-.14-.08-.3.09-.21.22.35.54.96.9 1.66.9s1.31-.36 1.66-.9c.09-.14-.06-.3-.21-.22-.42.22-.91.35-1.45.35Z"/><path fill="#E5AF93" d="m16.05 10.44-.52 1.68c-.11.34.15.69.51.69h.77c.36 0 .62-.35.51-.69l-.52-1.68c-.11-.37-.64-.37-.75 0Z"/><path fill="#212121" d="M19.9 8.82c.05.03.09.04.14.04.1 0 .19-.05.23-.15.08-.13.03-.29-.1-.37-.03-.02-.92-.52-1.94-.33-.15.03-.25.17-.22.32s.17.25.32.22c.75-.137 1.432.202 1.552.261a.447.447 0 0 0 .018.009ZM12.57 8.72c.05.09.14.14.24.14.04 0 .09-.01.13-.04l.019-.009c.12-.06.802-.398 1.551-.261.15.03.3-.07.32-.22a.273.273 0 0 0-.22-.32c-1.02-.19-1.91.32-1.94.34-.13.07-.18.24-.1.37Z"/><path fill="#9B9B9B" d="M9.45 7.18a.48.48 0 0 1 .48-.48h13.1a.48.48 0 1 1 0 .96H9.93a.48.48 0 0 1-.48-.48Z"/><path fill="#B4F6FC" d="M16.44 8.73a2.48 2.48 0 0 1 0-3.51c.97.97.97 2.54 0 3.51Z"/></svg>
